!!!COM: Palestrina, Giovanni Perluigi da
!!!OPR: Missa Io mi son giovinetta (1570)
!!!OMD: Gloria
!!!OTL: First Section
**kern	**kern	**kern	**kern
*Ibass	*Itenor	*Icalto	*Icant
!Bassus	!Tenor	!Altus	!Cantus
*clefF4	*clefGv2	*clefG2	*clefG2
*k[b-]	*k[b-]	*k[b-]	*k[b-]
*G:dor	*G:dor	*G:dor	*G:dor
*M4/2	*M4/2	*M4/2	*M4/2
=1	=1	=1	=1
0r	0r	1r	1.dd
.	.	[1g	.
.	.	.	2dd
=2	=2	=2	=2
0r	0r	2g]	2dd
.	.	2g	2dd
.	.	2g	2.ee
.	.	2g	.
.	.	.	4dd
=3	=3	=3	=3
0r	0r	2.a	2cc
.	.	.	1ff
.	.	4g	.
.	.	2f	.
.	.	2g	[2ee
=4	=4	=4	=4
0r	0r	2f	4ee]
.	.	.	4dd
.	.	2g	1dd
.	.	1e	.
.	.	.	2cc#
=5	=5	=5	=5
0r	1r	2d	2dd
.	.	1g	2b-
.	[1d	.	1a
.	.	2f#	.
=6	=6	=6	=6
1.G	2d]	1g	0g
.	2d	.	.
.	2d	1r	.
2G	2d	.	.
=7	=7	=7	=7
2G	2.e	0r	0r
2G	.	.	.
.	4d	.	.
2.A	2c	.	.
.	[2f	.	.
4G	.	.	.
=8	=8	=8	=8
2F	2f]	0r	0r
2G	2.e	.	.
2F	.	.	.
.	4d	.	.
2G	[2d	.	.
=9	=9	=9	=9
1E	2d]	1g	0r
.	2c#	.	.
2D	2d	2f	.
[2G	2B-	2g	.
=10	=10	=10	=10
2G]	1A	1a	1r
2F#	.	.	.
1G	1G	1b-	1dd
=11	=11	=11	=11
0r	0r	2a	2cc
.	.	2f	2dd
.	.	2g	1ee
.	.	2a	.
=12	=12	=12	=12
0r	0r	4d	1ff
.	.	4e	.
.	.	4f	.
.	.	4g	.
.	.	2.a	2ee
.	.	.	2cc
.	.	4g	.
=13	=13	=13	=13
1B-	0r	4f	2dd
.	.	4e	.
.	.	2d	2.ff
2A	.	1f	.
.	.	.	4ee
2F	.	.	[2dd
=14	=14	=14	=14
2G	1r	1e	2dd]
2A	.	.	2cc#
2D	2r	1d	2dd
[2G	[2d	.	[2b-
=15	=15	=15	=15
2G]	2d]	2r	2b-]
2G	2d	1g	2b-
1G	1d	.	1b-
.	.	2g	.
=16	=16	=16	=16
1C	1e-	2g	1cc
.	.	2g	.
1D	2d	2f#	2a
.	2d	2f#	2dd
=17	=17	=17	=17
0r	2e-	2g	2b-
.	2c	2a	2cc
.	2B-	2.b-	2.dd
.	4G	.	.
.	4A	4a	4cc
=18	=18	=18	=18
2r	4B-	2g	2b-
.	4c	.	.
2D	1d	1f	2.a
2BB-	.	.	.
.	.	.	4g
2C	4c	2e-	[2g
.	4B-	.	.
=19	=19	=19	=19
1D	0A	[0d	2g]
.	.	.	4f
.	.	.	4e
1D	.	.	1f#
=20	=20	=20	=20
0G	2G	1d]	0g
.	2d	.	.
.	2d	2r	.
.	2B-	2g	.
=21	=21	=21	=21
0r	2e-	2g	1r
.	4d	2f	.
.	4c	.	.
.	2d	1b-	2r
.	2B-	.	2g
=22	=22	=22	=22
1r	2c	2a	2g
.	2d	2a	2f
2r	1G	1g	1b-
2G	.	.	.
=23	=23	=23	=23
2G	1r	0d	2b-
2F	.	.	2a
1B-	2r	.	4g
.	.	.	4f
.	[2d	.	4f
.	.	.	8e
.	.	.	8d
=24	=24	=24	=24
2A	2d]	1r	1e
2A	2c	.	.
4D	1f	2r	1d
4E	.	.	.
4F	.	[2d	.
4G	.	.	.
=25	=25	=25	=25
1A	1e	2d]	1r
.	.	2c	.
1D	2.d	2.f	2r
.	.	.	[2dd
.	4c	4e	.
=26	=26	=26	=26
0r	4d	4f	2dd]
.	4e	4g	.
.	2.f	1a	2cc
.	.	.	1ff
.	4e	.	.
.	2d	2f	.
=27	=27	=27	=27
0r	2c	2g	2ee
.	2d	2f	2.ff
.	1B-	1d	.
.	.	.	4ee
.	.	.	[2dd
=28	=28	=28	=28
1r	1A	1e	2dd]
.	.	.	2cc
2r	1d	2f	2a
[2G	.	[2g	[2b-
=29	=29	=29	=29
2G]	1r	2g]	4b-]
.	.	.	4g
2F	.	2c	2.a
1B-	2r	2.d	.
.	.	.	4f
.	[2d	.	2g
.	.	4e	.
=30	=30	=30	=30
1A	2d]	2f	[0a
.	2c	2e	.
2r	1f	1d	.
[2d	.	.	.
=31	=31	=31	=31
2d]	2e	1A	1a]
2c	1a	.	.
2A	.	1r	1r
2B-	2g	.	.
=32	=32	=32	=32
4c	2e	0r	0r
4B-	.	.	.
4A	2.f	.	.
4G	.	.	.
2F	.	.	.
.	4e	.	.
2G	[2d	.	.
=33	=33	=33	=33
1E	2d]	1r	1r
.	2c#	.	.
1D	1d	2r	2r
.	.	2d	2dd
=34	=34	=34	=34
0r	0r	2e	2cc#
.	.	2f	2dd
.	.	1g	1b-
=35	=35	=35	=35
1d	2r	1f	0a
.	2d	.	.
2c#	2e	1r	.
2d	2f	.	.
=36	=36	=36	=36
1B-	1g	2r	2r
.	.	2d	2dd
2A	1a	2e	2cc#
2d	.	2f	2dd
=37	=37	=37	=37
4G	2r	1g	1b-
4A	.	.	.
4B-	2.d	.	.
4c	.	.	.
[1d	.	2f	2a
.	4e	.	.
.	2f	4d	[2ff
.	.	4e	.
=38	=38	=38	=38
2d]	2d	4f	2ff]
.	.	4g	.
2c	2e	1a	2ee
1B-	2f	.	1dd
.	2d	2g	.
=39	=39	=39	=39
0A	1e	1a	[0cc#
.	2r	1a	.
.	[2e	.	.
=40	=40	=40	=40
1A	2e]	2r	1cc#]
.	2e	1a	.
1D	1f	.	2r
.	.	2a	[2dd
=41	=41	=41	=41
1G	2.B-	1b-	2dd]
.	.	.	2dd
.	4c	.	.
1D	1d	2a	1ff
.	.	2f	.
=42	=42	=42	=42
0r	1A	2a	2ee
.	.	2a	2cc
.	2c	2g	2ee
.	2c	[2cc	2ee
=43	=43	=43	=43
2r	1G	2cc]	1dd
1G	.	4b-	.
.	.	4a	.
.	1r	2.b-	4g
.	.	.	4a
2G	.	.	4b-
.	.	8a	4cc
.	.	8g	.
=44	=44	=44	=44
1B-	0r	2f	4dd
.	.	.	4ee
.	.	2d	2.ff
2A	.	1f	.
.	.	.	4ee
2F	.	.	[2dd
=45	=45	=45	=45
2A	0r	2e	4dd]
.	.	.	4cc
2A	.	2c	1cc
[1G	.	1d	.
.	.	.	4b-
.	.	.	4a
=46	=46	=46	=46
1G]	2r	1g	2b-
.	1d	.	2b-
1r	.	2.f	2a
.	2d	.	[2a
.	.	4e	.
=47	=47	=47	=47
0r	1f	2d	2a]
.	.	2d	2a
.	2e	2A	1cc
.	2c	[2a	.
=48	=48	=48	=48
1r	2e-	4a]	2b-
.	.	4g	.
.	2e-	1g	2g
2r	1d	.	2b-
[2D	.	4f	2a
.	.	4e	.
=49	=49	=49	=49
2D]	2r	2.f	4d
.	.	.	4e
2D	1A	.	4f
.	.	4e	4g
1F	.	2d	4a
.	.	.	4b-
.	2A	[2c	[2cc
=50	=50	=50	=50
2E	1c	4c]	4cc]
.	.	4d	4b-
2C	.	1e-	2.a
2E-	2B-	.	.
.	.	.	4g
2E-	2G	2c	[2g
=51	=51	=51	=51
0D	1B-	[0d	2g]
.	.	.	4f
.	.	.	4e
.	1A	.	1f#
=52	=52	=52	=52
0G	0G	0d]	0g
*-	*-	*-	*-
!!!CDT: 1525/^1526/-1594/2/2
!!!OCY: Italia
!!!AGN: Mass (Parody)
!!!AST: renaissance, vocal
!!!ASW: Madrigal 1542 (Ferabosco)
!!!PWK: Masses, Book 3
!!!RNB: Cadence finals: A
!!!YOR: Le Opere Complete, v. 6, p. 30
!!!YOO: Rome, Italy: Fratelli Scalera
!!!END: 1992//
!!!EED: John Miller
!!!YEC: Copyright 2000, John Miller
!!!YEN: United States of America
!!!YEM: Rights to all derivative electronic formats reserved.
!!!YEM: Refer to licensing agreement for further details.
!!!YEM: This file must be accompanied by the licensing agreement.
!!!YEM: A copy of the licensing agreement may be found at http://www.music-cog.ohio-state.edu/HumdrumDatabases/Palestrina/license.txt
!!!EMD: converted to Humdrum by Bret Aarden
